images/3233384.svg

<?xml version="1.0" encoding="UTF-8"?>
<svg xmlns="http://www.w3.org/2000/svg" xmlns:xlink="http://www.w3.org/1999/xlink" width="300pt" height="300pt" viewBox="0 0 300 300" version="1.1">
<defs>
<g>
<symbol overflow="visible" id="glyph0-0">
<path style="stroke:none;" d="M 0.59375 2.125 L 0.59375 -8.46875 L 6.59375 -8.46875 L 6.59375 2.125 Z M 1.265625 1.453125 L 5.9375 1.453125 L 5.9375 -7.78125 L 1.265625 -7.78125 Z M 1.265625 1.453125 "/>
</symbol>
<symbol overflow="visible" id="glyph0-1">
<path style="stroke:none;" d="M 1.171875 -8.75 L 2.765625 -8.75 L 6.65625 -1.4375 L 6.65625 -8.75 L 7.796875 -8.75 L 7.796875 0 L 6.203125 0 L 2.328125 -7.3125 L 2.328125 0 L 1.171875 0 Z M 1.171875 -8.75 "/>
</symbol>
<symbol overflow="visible" id="glyph0-2">
<path style="stroke:none;" d="M 4.734375 -7.953125 C 3.867188 -7.953125 3.179688 -7.628906 2.671875 -6.984375 C 2.171875 -6.347656 1.921875 -5.472656 1.921875 -4.359375 C 1.921875 -3.265625 2.171875 -2.394531 2.671875 -1.75 C 3.179688 -1.113281 3.867188 -0.796875 4.734375 -0.796875 C 5.585938 -0.796875 6.265625 -1.113281 6.765625 -1.75 C 7.273438 -2.394531 7.53125 -3.265625 7.53125 -4.359375 C 7.53125 -5.472656 7.273438 -6.347656 6.765625 -6.984375 C 6.265625 -7.628906 5.585938 -7.953125 4.734375 -7.953125 Z M 4.734375 -8.90625 C 5.953125 -8.90625 6.925781 -8.492188 7.65625 -7.671875 C 8.394531 -6.847656 8.765625 -5.742188 8.765625 -4.359375 C 8.765625 -2.984375 8.394531 -1.882812 7.65625 -1.0625 C 6.925781 -0.238281 5.953125 0.171875 4.734375 0.171875 C 3.503906 0.171875 2.519531 -0.238281 1.78125 -1.0625 C 1.039062 -1.882812 0.671875 -2.984375 0.671875 -4.359375 C 0.671875 -5.742188 1.039062 -6.847656 1.78125 -7.671875 C 2.519531 -8.492188 3.503906 -8.90625 4.734375 -8.90625 Z M 4.734375 -8.90625 "/>
</symbol>
</g>
</defs>
<g id="surface44641">
<rect x="0" y="0" width="300" height="300" style="fill:rgb(100%,100%,100%);fill-opacity:1;stroke:none;"/>
<path style="fill:none;stroke-width:1.2;stroke-linecap:butt;stroke-linejoin:miter;stroke:rgb(0%,0%,0%);stroke-opacity:1;stroke-miterlimit:10;" d="M 35.25 194.4375 L 64.707031 184.535156 "/>
<path style="fill:none;stroke-width:1.2;stroke-linecap:butt;stroke-linejoin:miter;stroke:rgb(0%,0%,0%);stroke-opacity:1;stroke-miterlimit:10;" d="M 64.707031 184.535156 L 76.359375 194.8125 "/>
<path style="fill:none;stroke-width:1.2;stroke-linecap:butt;stroke-linejoin:miter;stroke:rgb(0%,0%,100%);stroke-opacity:1;stroke-miterlimit:10;" d="M 76.359375 194.8125 L 88.011719 205.09375 "/>
<path style="fill:none;stroke-width:1.2;stroke-linecap:butt;stroke-linejoin:miter;stroke:rgb(0%,0%,0%);stroke-opacity:1;stroke-miterlimit:10;" d="M 71.875 181.105469 L 81.195312 189.332031 "/>
<path style="fill:none;stroke-width:1.2;stroke-linecap:butt;stroke-linejoin:miter;stroke:rgb(0%,0%,100%);stroke-opacity:1;stroke-miterlimit:10;" d="M 81.195312 189.332031 L 90.519531 197.554688 "/>
<path style="fill:none;stroke-width:1.2;stroke-linecap:butt;stroke-linejoin:miter;stroke:rgb(0%,0%,0%);stroke-opacity:1;stroke-miterlimit:10;" d="M 70.859375 154.074219 L 64.707031 184.535156 "/>
<path style="fill:none;stroke-width:1.2;stroke-linecap:butt;stroke-linejoin:miter;stroke:rgb(0%,0%,100%);stroke-opacity:1;stroke-miterlimit:10;" d="M 88.011719 205.09375 L 102.738281 200.140625 "/>
<path style="fill:none;stroke-width:1.2;stroke-linecap:butt;stroke-linejoin:miter;stroke:rgb(0%,0%,0%);stroke-opacity:1;stroke-miterlimit:10;" d="M 102.738281 200.140625 L 117.46875 195.191406 "/>
<path style=" stroke:none;fill-rule:nonzero;fill:rgb(100%,100%,100%);fill-opacity:1;" d="M 84.011719 198.09375 L 93.011719 198.09375 L 93.011719 212.09375 L 84.011719 212.09375 Z M 84.011719 198.09375 "/>
<g style="fill:rgb(0%,0%,100%);fill-opacity:1;">
  <use xlink:href="#glyph0-1" x="84.011719" y="209.232422"/>
</g>
<path style="fill:none;stroke-width:1.2;stroke-linecap:butt;stroke-linejoin:miter;stroke:rgb(0%,0%,0%);stroke-opacity:1;stroke-miterlimit:10;" d="M 117.46875 195.191406 L 140.773438 215.75 "/>
<path style="fill:none;stroke-width:1.2;stroke-linecap:butt;stroke-linejoin:miter;stroke:rgb(0%,0%,0%);stroke-opacity:1;stroke-miterlimit:10;" d="M 124.636719 191.761719 L 143.277344 208.210938 "/>
<path style="fill:none;stroke-width:1.2;stroke-linecap:butt;stroke-linejoin:miter;stroke:rgb(0%,0%,0%);stroke-opacity:1;stroke-miterlimit:10;" d="M 123.621094 164.726562 L 117.46875 195.191406 "/>
<path style="fill:none;stroke-width:1.2;stroke-linecap:butt;stroke-linejoin:miter;stroke:rgb(0%,0%,0%);stroke-opacity:1;stroke-miterlimit:10;" d="M 140.773438 215.75 L 155.5 210.796875 "/>
<path style="fill:none;stroke-width:1.2;stroke-linecap:butt;stroke-linejoin:miter;stroke:rgb(0%,0%,100%);stroke-opacity:1;stroke-miterlimit:10;" d="M 155.5 210.796875 L 170.230469 205.84375 "/>
<path style="fill:none;stroke-width:1.2;stroke-linecap:butt;stroke-linejoin:miter;stroke:rgb(0%,0%,100%);stroke-opacity:1;stroke-miterlimit:10;" d="M 170.230469 205.84375 L 173.304688 190.613281 "/>
<path style="fill:none;stroke-width:1.2;stroke-linecap:butt;stroke-linejoin:miter;stroke:rgb(0%,0%,0%);stroke-opacity:1;stroke-miterlimit:10;" d="M 173.304688 190.613281 L 176.378906 175.382812 "/>
<path style="fill:none;stroke-width:1.2;stroke-linecap:butt;stroke-linejoin:miter;stroke:rgb(0%,0%,100%);stroke-opacity:1;stroke-miterlimit:10;" d="M 163.675781 201.351562 L 166.136719 189.167969 "/>
<path style="fill:none;stroke-width:1.2;stroke-linecap:butt;stroke-linejoin:miter;stroke:rgb(0%,0%,0%);stroke-opacity:1;stroke-miterlimit:10;" d="M 166.136719 189.167969 L 168.597656 176.980469 "/>
<path style=" stroke:none;fill-rule:nonzero;fill:rgb(100%,100%,100%);fill-opacity:1;" d="M 166.230469 198.84375 L 175.230469 198.84375 L 175.230469 212.84375 L 166.230469 212.84375 Z M 166.230469 198.84375 "/>
<g style="fill:rgb(0%,0%,100%);fill-opacity:1;">
  <use xlink:href="#glyph0-1" x="166.230469" y="209.982422"/>
</g>
<path style="fill:none;stroke-width:1.2;stroke-linecap:butt;stroke-linejoin:miter;stroke:rgb(0%,0%,0%);stroke-opacity:1;stroke-miterlimit:10;" d="M 176.378906 175.382812 L 164.726562 165.105469 "/>
<path style="fill:none;stroke-width:1.2;stroke-linecap:butt;stroke-linejoin:miter;stroke:rgb(0%,0%,100%);stroke-opacity:1;stroke-miterlimit:10;" d="M 164.726562 165.105469 L 153.074219 154.824219 "/>
<path style="fill:none;stroke-width:1.2;stroke-linecap:butt;stroke-linejoin:miter;stroke:rgb(0%,0%,0%);stroke-opacity:1;stroke-miterlimit:10;" d="M 176.378906 175.382812 L 191.109375 170.429688 "/>
<path style="fill:none;stroke-width:1.2;stroke-linecap:butt;stroke-linejoin:miter;stroke:rgb(0%,0%,100%);stroke-opacity:1;stroke-miterlimit:10;" d="M 191.109375 170.429688 L 205.835938 165.480469 "/>
<path style="fill:none;stroke-width:1.2;stroke-linecap:butt;stroke-linejoin:miter;stroke:rgb(0%,0%,100%);stroke-opacity:1;stroke-miterlimit:10;" d="M 153.074219 154.824219 L 138.347656 159.777344 "/>
<path style="fill:none;stroke-width:1.2;stroke-linecap:butt;stroke-linejoin:miter;stroke:rgb(0%,0%,0%);stroke-opacity:1;stroke-miterlimit:10;" d="M 138.347656 159.777344 L 123.621094 164.726562 "/>
<path style="fill:none;stroke-width:1.2;stroke-linecap:butt;stroke-linejoin:miter;stroke:rgb(0%,0%,100%);stroke-opacity:1;stroke-miterlimit:10;" d="M 152.460938 162.746094 L 140.679688 166.707031 "/>
<path style="fill:none;stroke-width:1.2;stroke-linecap:butt;stroke-linejoin:miter;stroke:rgb(0%,0%,0%);stroke-opacity:1;stroke-miterlimit:10;" d="M 140.679688 166.707031 L 128.894531 170.667969 "/>
<path style=" stroke:none;fill-rule:nonzero;fill:rgb(100%,100%,100%);fill-opacity:1;" d="M 149.074219 147.824219 L 158.074219 147.824219 L 158.074219 161.824219 L 149.074219 161.824219 Z M 149.074219 147.824219 "/>
<g style="fill:rgb(0%,0%,100%);fill-opacity:1;">
  <use xlink:href="#glyph0-1" x="149.074219" y="158.962891"/>
</g>
<path style="fill:none;stroke-width:1.2;stroke-linecap:butt;stroke-linejoin:miter;stroke:rgb(0%,0%,0%);stroke-opacity:1;stroke-miterlimit:10;" d="M 123.621094 164.726562 L 111.96875 154.449219 "/>
<path style="fill:none;stroke-width:1.2;stroke-linecap:butt;stroke-linejoin:miter;stroke:rgb(0%,0%,100%);stroke-opacity:1;stroke-miterlimit:10;" d="M 111.96875 154.449219 L 100.316406 144.167969 "/>
<path style="fill:none;stroke-width:1.2;stroke-linecap:butt;stroke-linejoin:miter;stroke:rgb(0%,0%,100%);stroke-opacity:1;stroke-miterlimit:10;" d="M 100.316406 144.167969 L 85.585938 149.121094 "/>
<path style="fill:none;stroke-width:1.2;stroke-linecap:butt;stroke-linejoin:miter;stroke:rgb(0%,0%,0%);stroke-opacity:1;stroke-miterlimit:10;" d="M 85.585938 149.121094 L 70.859375 154.074219 "/>
<path style="fill:none;stroke-width:1.2;stroke-linecap:butt;stroke-linejoin:miter;stroke:rgb(0%,0%,100%);stroke-opacity:1;stroke-miterlimit:10;" d="M 100.316406 144.167969 L 103.390625 128.9375 "/>
<path style="fill:none;stroke-width:1.2;stroke-linecap:butt;stroke-linejoin:miter;stroke:rgb(0%,0%,0%);stroke-opacity:1;stroke-miterlimit:10;" d="M 103.390625 128.9375 L 106.464844 113.707031 "/>
<path style=" stroke:none;fill-rule:nonzero;fill:rgb(100%,100%,100%);fill-opacity:1;" d="M 96.316406 137.167969 L 105.316406 137.167969 L 105.316406 151.167969 L 96.316406 151.167969 Z M 96.316406 137.167969 "/>
<g style="fill:rgb(0%,0%,100%);fill-opacity:1;">
  <use xlink:href="#glyph0-1" x="96.316406" y="148.306641"/>
</g>
<path style="fill:none;stroke-width:1.2;stroke-linecap:butt;stroke-linejoin:miter;stroke:rgb(0%,0%,0%);stroke-opacity:1;stroke-miterlimit:10;" d="M 73.277344 151.332031 L 61.625 141.050781 "/>
<path style="fill:none;stroke-width:1.2;stroke-linecap:butt;stroke-linejoin:miter;stroke:rgb(100%,0%,0%);stroke-opacity:1;stroke-miterlimit:10;" d="M 61.625 141.050781 L 49.972656 130.773438 "/>
<path style="fill:none;stroke-width:1.2;stroke-linecap:butt;stroke-linejoin:miter;stroke:rgb(0%,0%,0%);stroke-opacity:1;stroke-miterlimit:10;" d="M 68.441406 156.816406 L 56.785156 146.535156 "/>
<path style="fill:none;stroke-width:1.2;stroke-linecap:butt;stroke-linejoin:miter;stroke:rgb(100%,0%,0%);stroke-opacity:1;stroke-miterlimit:10;" d="M 56.785156 146.535156 L 45.132812 136.257812 "/>
<path style=" stroke:none;fill-rule:nonzero;fill:rgb(100%,100%,100%);fill-opacity:1;" d="M 37.554688 126.515625 L 47.554688 126.515625 L 47.554688 140.515625 L 37.554688 140.515625 Z M 37.554688 126.515625 "/>
<g style="fill:rgb(100%,0%,0%);fill-opacity:1;">
  <use xlink:href="#glyph0-2" x="37.554688" y="137.654297"/>
</g>
<path style="fill:none;stroke-width:1.2;stroke-linecap:butt;stroke-linejoin:miter;stroke:rgb(0%,0%,0%);stroke-opacity:1;stroke-miterlimit:10;" d="M 106.464844 113.707031 L 96.5625 84.25 "/>
<path style="fill:none;stroke-width:1.2;stroke-linecap:butt;stroke-linejoin:miter;stroke:rgb(0%,0%,0%);stroke-opacity:1;stroke-miterlimit:10;" d="M 127.023438 90.402344 L 106.464844 113.707031 "/>
<path style="fill:none;stroke-width:1.2;stroke-linecap:butt;stroke-linejoin:miter;stroke:rgb(0%,0%,0%);stroke-opacity:1;stroke-miterlimit:10;" d="M 96.5625 84.25 L 127.023438 90.402344 "/>
<path style="fill:none;stroke-width:1.2;stroke-linecap:butt;stroke-linejoin:miter;stroke:rgb(0%,0%,100%);stroke-opacity:1;stroke-miterlimit:10;" d="M 205.835938 165.480469 L 217.488281 175.757812 "/>
<path style="fill:none;stroke-width:1.2;stroke-linecap:butt;stroke-linejoin:miter;stroke:rgb(0%,0%,0%);stroke-opacity:1;stroke-miterlimit:10;" d="M 217.488281 175.757812 L 229.140625 186.039062 "/>
<path style="fill:none;stroke-width:1.2;stroke-linecap:butt;stroke-linejoin:miter;stroke:rgb(0%,0%,0%);stroke-opacity:1;stroke-miterlimit:10;" d="M 211.988281 135.019531 L 208.914062 150.25 "/>
<path style="fill:none;stroke-width:1.2;stroke-linecap:butt;stroke-linejoin:miter;stroke:rgb(0%,0%,100%);stroke-opacity:1;stroke-miterlimit:10;" d="M 208.914062 150.25 L 205.835938 165.480469 "/>
<path style=" stroke:none;fill-rule:nonzero;fill:rgb(100%,100%,100%);fill-opacity:1;" d="M 201.835938 158.480469 L 210.835938 158.480469 L 210.835938 172.480469 L 201.835938 172.480469 Z M 201.835938 158.480469 "/>
<g style="fill:rgb(0%,0%,100%);fill-opacity:1;">
  <use xlink:href="#glyph0-1" x="201.835938" y="169.619141"/>
</g>
<path style="fill:none;stroke-width:1.2;stroke-linecap:butt;stroke-linejoin:miter;stroke:rgb(0%,0%,0%);stroke-opacity:1;stroke-miterlimit:10;" d="M 229.140625 186.039062 L 258.597656 176.136719 "/>
<path style="fill:none;stroke-width:1.2;stroke-linecap:butt;stroke-linejoin:miter;stroke:rgb(0%,0%,0%);stroke-opacity:1;stroke-miterlimit:10;" d="M 258.597656 176.136719 L 261.675781 160.902344 "/>
<path style="fill:none;stroke-width:1.2;stroke-linecap:butt;stroke-linejoin:miter;stroke:rgb(100%,0%,0%);stroke-opacity:1;stroke-miterlimit:10;" d="M 261.675781 160.902344 L 264.75 145.671875 "/>
<path style="fill:none;stroke-width:1.2;stroke-linecap:butt;stroke-linejoin:miter;stroke:rgb(100%,0%,0%);stroke-opacity:1;stroke-miterlimit:10;" d="M 264.75 145.671875 L 253.097656 135.394531 "/>
<path style="fill:none;stroke-width:1.2;stroke-linecap:butt;stroke-linejoin:miter;stroke:rgb(0%,0%,0%);stroke-opacity:1;stroke-miterlimit:10;" d="M 253.097656 135.394531 L 241.445312 125.113281 "/>
<path style=" stroke:none;fill-rule:nonzero;fill:rgb(100%,100%,100%);fill-opacity:1;" d="M 259.75 138.671875 L 269.75 138.671875 L 269.75 152.671875 L 259.75 152.671875 Z M 259.75 138.671875 "/>
<g style="fill:rgb(100%,0%,0%);fill-opacity:1;">
  <use xlink:href="#glyph0-2" x="259.75" y="149.810547"/>
</g>
<path style="fill:none;stroke-width:1.2;stroke-linecap:butt;stroke-linejoin:miter;stroke:rgb(0%,0%,0%);stroke-opacity:1;stroke-miterlimit:10;" d="M 241.445312 125.113281 L 211.988281 135.019531 "/>
</g>
</svg>

<svg xmlns="http://www.w3.org/2000/svg" xmlns:xlink="http://www.w3.org/1999/xlink" width="300pt" height="300pt" viewBox="0 0 300 300"><defs><symbol overflow="visible"><path d="M.594 2.125V-8.47h6V2.126zm.672-.672h4.671V-7.78h-4.67zm0 0"/></symbol><symbol overflow="visible" id="a"><path d="M1.172-8.75h1.594l3.89 7.313V-8.75h1.14V0H6.204L2.328-7.313V0H1.172zm0 0"/></symbol><symbol overflow="visible" id="b"><path d="M4.734-7.953c-.867 0-1.554.324-2.062.97-.5.635-.75 1.51-.75 2.624 0 1.094.25 1.965.75 2.61.508.637 1.195.953 2.062.953.852 0 1.532-.316 2.032-.953.507-.645.765-1.516.765-2.61 0-1.113-.257-1.988-.764-2.624-.5-.645-1.18-.97-2.032-.97zm0-.953c1.22 0 2.192.414 2.922 1.234.74.824 1.11 1.93 1.11 3.313 0 1.376-.37 2.477-1.11 3.298C6.926-.24 5.953.17 4.734.17c-1.23 0-2.214-.41-2.953-1.234C1.04-1.882.673-2.984.673-4.36c0-1.382.367-2.488 1.11-3.312.738-.82 1.722-1.234 2.952-1.234zm0 0"/></symbol></defs><g><path fill="#fff" d="M0 0h300v300H0z"/><path d="M35.25 194.438l29.457-9.903M64.707 184.535l11.652 10.278" stroke-width="1.2" stroke="#000" stroke-miterlimit="10" fill="none"/><path d="M76.36 194.813l11.652 10.28" stroke-width="1.2" stroke="#00f" stroke-miterlimit="10" fill="none"/><path d="M71.875 181.105l9.32 8.227" stroke-width="1.2" stroke="#000" stroke-miterlimit="10" fill="none"/><path d="M81.195 189.332l9.325 8.223" stroke-width="1.2" stroke="#00f" stroke-miterlimit="10" fill="none"/><path d="M70.86 154.074l-6.153 30.46" stroke-width="1.2" stroke="#000" stroke-miterlimit="10" fill="none"/><path d="M88.012 205.094l14.726-4.953" stroke-width="1.2" stroke="#00f" stroke-miterlimit="10" fill="none"/><path d="M102.738 200.14l14.73-4.95" stroke-width="1.2" stroke="#000" stroke-miterlimit="10" fill="none"/><path d="M84.012 198.094h9v14h-9zm0 0" fill="#fff"/><use xlink:href="#a" x="84.012" y="209.232" fill="#00f"/><path d="M117.47 195.19l23.303 20.56M124.637 191.762l18.64 16.45M123.62 164.727l-6.15 30.464M140.773 215.75l14.727-4.953" stroke-width="1.2" stroke="#000" stroke-miterlimit="10" fill="none"/><path d="M155.5 210.797l14.73-4.953M170.23 205.844l3.075-15.23" stroke-width="1.2" stroke="#00f" stroke-miterlimit="10" fill="none"/><path d="M173.305 190.613l3.074-15.23" stroke-width="1.2" stroke="#000" stroke-miterlimit="10" fill="none"/><path d="M163.676 201.352l2.46-12.184" stroke-width="1.2" stroke="#00f" stroke-miterlimit="10" fill="none"/><path d="M166.137 189.168l2.46-12.188" stroke-width="1.2" stroke="#000" stroke-miterlimit="10" fill="none"/><path d="M166.23 198.844h9v14h-9zm0 0" fill="#fff"/><use xlink:href="#a" x="166.23" y="209.982" fill="#00f"/><path d="M176.38 175.383l-11.653-10.278" stroke-width="1.2" stroke="#000" stroke-miterlimit="10" fill="none"/><path d="M164.727 165.105l-11.653-10.28" stroke-width="1.2" stroke="#00f" stroke-miterlimit="10" fill="none"/><path d="M176.38 175.383l14.73-4.953" stroke-width="1.2" stroke="#000" stroke-miterlimit="10" fill="none"/><path d="M191.11 170.43l14.726-4.95M153.074 154.824l-14.726 4.953" stroke-width="1.2" stroke="#00f" stroke-miterlimit="10" fill="none"/><path d="M138.348 159.777l-14.727 4.95" stroke-width="1.2" stroke="#000" stroke-miterlimit="10" fill="none"/><path d="M152.46 162.746l-11.78 3.96" stroke-width="1.2" stroke="#00f" stroke-miterlimit="10" fill="none"/><path d="M140.68 166.707l-11.785 3.96" stroke-width="1.2" stroke="#000" stroke-miterlimit="10" fill="none"/><path d="M149.074 147.824h9v14h-9zm0 0" fill="#fff"/><use xlink:href="#a" x="149.074" y="158.963" fill="#00f"/><path d="M123.62 164.727l-11.65-10.278" stroke-width="1.2" stroke="#000" stroke-miterlimit="10" fill="none"/><path d="M111.97 154.45l-11.654-10.282M100.316 144.168l-14.73 4.953" stroke-width="1.2" stroke="#00f" stroke-miterlimit="10" fill="none"/><path d="M85.586 149.12l-14.727 4.954" stroke-width="1.2" stroke="#000" stroke-miterlimit="10" fill="none"/><path d="M100.316 144.168l3.075-15.23" stroke-width="1.2" stroke="#00f" stroke-miterlimit="10" fill="none"/><path d="M103.39 128.938l3.075-15.23" stroke-width="1.2" stroke="#000" stroke-miterlimit="10" fill="none"/><path d="M96.316 137.168h9v14h-9zm0 0" fill="#fff"/><use xlink:href="#a" x="96.316" y="148.307" fill="#00f"/><path d="M73.277 151.332l-11.652-10.28" stroke-width="1.2" stroke="#000" stroke-miterlimit="10" fill="none"/><path d="M61.625 141.05l-11.652-10.277" stroke-width="1.2" stroke="#f00" stroke-miterlimit="10" fill="none"/><path d="M68.44 156.816l-11.655-10.28" stroke-width="1.2" stroke="#000" stroke-miterlimit="10" fill="none"/><path d="M56.785 146.535l-11.652-10.277" stroke-width="1.2" stroke="#f00" stroke-miterlimit="10" fill="none"/><path d="M37.555 126.516h10v14h-10zm0 0" fill="#fff"/><use xlink:href="#b" x="37.555" y="137.654" fill="#f00"/><path d="M106.465 113.707L96.562 84.25M127.023 90.402l-20.558 23.305M96.563 84.25l30.46 6.152" stroke-width="1.2" stroke="#000" stroke-miterlimit="10" fill="none"/><path d="M205.836 165.48l11.652 10.278" stroke-width="1.2" stroke="#00f" stroke-miterlimit="10" fill="none"/><path d="M217.488 175.758l11.653 10.28M211.988 135.02l-3.074 15.23" stroke-width="1.2" stroke="#000" stroke-miterlimit="10" fill="none"/><path d="M208.914 150.25l-3.078 15.23" stroke-width="1.2" stroke="#00f" stroke-miterlimit="10" fill="none"/><path d="M201.836 158.48h9v14h-9zm0 0" fill="#fff"/><use xlink:href="#a" x="201.836" y="169.619" fill="#00f"/><path d="M229.14 186.04l29.458-9.903M258.598 176.137l3.078-15.235" stroke-width="1.2" stroke="#000" stroke-miterlimit="10" fill="none"/><path d="M261.676 160.902l3.074-15.23M264.75 145.672l-11.652-10.277" stroke-width="1.2" stroke="#f00" stroke-miterlimit="10" fill="none"/><path d="M253.098 135.395l-11.653-10.282" stroke-width="1.2" stroke="#000" stroke-miterlimit="10" fill="none"/><path d="M259.75 138.672h10v14h-10zm0 0" fill="#fff"/><use xlink:href="#b" x="259.75" y="149.811" fill="#f00"/><path d="M241.445 125.113l-29.457 9.907" stroke-width="1.2" stroke="#000" stroke-miterlimit="10" fill="none"/></g></svg>
